src/images/avatars/avatar-10.svg

<svg fill="none" height="78" viewBox="0 0 47 78" width="47" xmlns="http://www.w3.org/2000/svg"><path d="m2.07829 43c-1.799998-9.1-4.5-42 21.30001-42 24.4 0 22.7 30.8 21.6 42-1 9.3-41.00001 10-42.90001 0z" fill="#5c5c5c" stroke="#4d4d4d" stroke-linejoin="round" stroke-miterlimit="10" stroke-width="2"/><path d="m26.9782 58v-14.5h-7.6v14.5c0 1.1-.9 2-2 2h-1.7c0 3.4 3.3 9.4 7.4 9.4s7.4-6.1 7.4-9.4h-1.5c-1.1-.1-2-.9-2-2z" fill="#b88f77" stroke="#4d4d4d" stroke-linejoin="round" stroke-miterlimit="10" stroke-width="2"/><path d="m19.4784 53.2c.1-1.5-.1-1.6-.1-1.6l7.6001.2s-.3 1.7.3 3.9c.4 1.1-7.9001-1.7-7.8001-2.5z" fill="#90674e"/><g stroke="#4d4d4d" stroke-linejoin="round" stroke-miterlimit="10" stroke-width="2"><path d="m26.9782 58v-14.5h-7.6v14.5c0 1.1-.9 2-2 2h-1.7c0 3.4 3.3 9.4 7.4 9.4s7.4-6.1 7.4-9.4h-1.5c-1.1-.1-2-.9-2-2z"/><path d="m7.07822 37.7c2.1539 0 3.89998-1.7461 3.89998-3.9s-1.74608-3.9-3.89998-3.9c-2.15391 0-3.9 1.7461-3.9 3.9s1.74609 3.9 3.9 3.9z" fill="#b88f77"/><path d="m39.2784 37.7c2.154 0 3.9001-1.7461 3.9001-3.9s-1.7461-3.9-3.9001-3.9c-2.1539 0-3.9 1.7461-3.9 3.9s1.7461 3.9 3.9 3.9z" fill="#b88f77"/><path d="m6.87842 33.4c.1 9.3 6.99998 18.9 15.89998 19.1 9.2.3 16.7-8.2 16.7-18.7 0 0-.5-8.8-1.1-10.5-2.5 1-3.8 1.5-5.5 1.6l-.3-2.6c-3 .5-7.8.7-10.4 0l-.2 2.4c-3.3-.2-11.5-.7-13.69998-1.2-.5 1.5-1.4 6.8-1.4 9.9z" fill="#b88f77"/></g><path d="m16.2783 34.1c.8284 0 1.5-.6716 1.5-1.5 0-.8285-.6716-1.5-1.5-1.5s-1.5.6715-1.5 1.5c0 .8284.6716 1.5 1.5 1.5z" fill="#4d4d4d"/><path d="m30.0783 34.1c.8284 0 1.5-.6716 1.5-1.5 0-.8285-.6716-1.5-1.5-1.5-.8285 0-1.5001.6715-1.5001 1.5 0 .8284.6716 1.5 1.5001 1.5z" fill="#4d4d4d"/><path d="m24.9783 45.2c-.8 1.3-2.9 1.1-3.7 0" stroke="#4d4d4d" stroke-linecap="round" stroke-linejoin="round" stroke-miterlimit="10" stroke-width="2"/><path d="m43.4784 67.3c0-4.4-3.6-8-8-8h-7.9v-3.3c0 .8-9.1.8-9.1 0v3.3h-7.6c-4.39998 0-7.99998 3.6-7.99998 8v1.3c5.3 4.9 12.39998 7.8 20.19998 7.8 7.9 0 15-3 20.4-8z" fill="#82d5bf" stroke="#4d4d4d" stroke-linejoin="round" stroke-miterlimit="10" stroke-width="2"/><path d="m9.27832 68.3v4.4" stroke="#4d4d4d" stroke-linecap="round" stroke-linejoin="round" stroke-miterlimit="10" stroke-width="2"/><path d="m37.1782 68.3v4.4" stroke="#4d4d4d" stroke-linecap="round" stroke-linejoin="round" stroke-miterlimit="10" stroke-width="2"/><path d="m10.3781 16.3c-.99998 2.2-1.69998 4.6-2.29998 7.6z" fill="#fcc5af"/><path d="m10.3781 16.3c-.99998 2.2-1.69998 4.6-2.29998 7.6" stroke="#4d4d4d" stroke-linecap="round" stroke-linejoin="round" stroke-miterlimit="10" stroke-width="2"/><path d="m14.1785 19.1c-.3 1.4-.6 3-.7 4.7z" fill="#fcc5af"/><path d="m14.1785 19.1c-.3 1.4-.6 3-.7 4.7" stroke="#4d4d4d" stroke-linecap="round" stroke-linejoin="round" stroke-miterlimit="10" stroke-width="1.8189"/><path d="m22.5781 18.1c-.4 1.8-.5 4.3-.5 6.4z" fill="#fcc5af"/><path d="m22.5781 18.1c-.4 1.8-.5 4.3-.5 6.4" stroke="#4d4d4d" stroke-linecap="round" stroke-linejoin="round" stroke-miterlimit="10" stroke-width="1.8189"/><path d="m31.6782 17.9c.6 2.2.9 3.8 1 6.2z" fill="#fcc5af"/><path d="m31.6782 17.9c.6 2.2.9 3.8 1 6.2" stroke="#4d4d4d" stroke-linecap="round" stroke-linejoin="round" stroke-miterlimit="10" stroke-width="1.8189"/><path d="m35.9785 15.3c.8 1.5 2.3 6.1 2.5 8.8z" fill="#fcc5af"/><path d="m35.9785 15.3c.8 1.5 2.3 6.1 2.5 8.8" stroke="#4d4d4d" stroke-linecap="round" stroke-linejoin="round" stroke-miterlimit="10" stroke-width="2"/><path d="m21.6782 35.9v1.7c0 .7.6 1.3 1.3 1.3h1" stroke="#4d4d4d" stroke-linecap="round" stroke-linejoin="round" stroke-miterlimit="10" stroke-width="2"/><path d="m5.17831 39.6c1.04934 0 1.9-.8507 1.9-1.9 0-1.0494-.85066-1.9-1.9-1.9-1.04933 0-1.89999.8506-1.89999 1.9 0 1.0493.85066 1.9 1.89999 1.9z" fill="#82d5bf" stroke="#4d4d4d" stroke-linejoin="round" stroke-miterlimit="10" stroke-width="2"/><path d="m41.1783 39.6c1.0494 0 1.9-.8507 1.9-1.9 0-1.0494-.8506-1.9-1.9-1.9-1.0493 0-1.9.8506-1.9 1.9 0 1.0493.8507 1.9 1.9 1.9z" fill="#82d5bf" stroke="#4d4d4d" stroke-linejoin="round" stroke-miterlimit="10" stroke-width="2"/></svg>

<svg width="47" height="78" viewBox="0 0 47 78" fill="none" xmlns="http://www.w3.org/2000/svg">
<path d="M2.07829 43C0.278292 33.9 -2.42171 1 23.3783 1C47.7783 1 46.0783 31.8 44.9783 43C43.9783 52.3 3.97829 53 2.07829 43Z" fill="#5C5C5C" stroke="#4D4D4D" stroke-width="2" stroke-miterlimit="10" stroke-linejoin="round"/>
<path d="M26.9782 58V43.5H19.3782V58C19.3782 59.1 18.4782 60 17.3782 60H15.6782C15.6782 63.4 18.9782 69.4 23.0782 69.4C27.1782 69.4 30.4782 63.3 30.4782 60H28.9782C27.8782 59.9 26.9782 59.1 26.9782 58Z" fill="#B88F77" stroke="#4D4D4D" stroke-width="2" stroke-miterlimit="10" stroke-linejoin="round"/>
<path d="M19.4784 53.2C19.5784 51.7 19.3784 51.6 19.3784 51.6L26.9785 51.8C26.9785 51.8 26.6785 53.5 27.2785 55.7C27.6785 56.8 19.3784 54 19.4784 53.2Z" fill="#90674E"/>
<path d="M26.9782 58V43.5H19.3782V58C19.3782 59.1 18.4782 60 17.3782 60H15.6782C15.6782 63.4 18.9782 69.4 23.0782 69.4C27.1782 69.4 30.4782 63.3 30.4782 60H28.9782C27.8782 59.9 26.9782 59.1 26.9782 58Z" stroke="#4D4D4D" stroke-width="2" stroke-miterlimit="10" stroke-linejoin="round"/>
<path d="M7.07822 37.7C9.23212 37.7 10.9782 35.9539 10.9782 33.8C10.9782 31.6461 9.23212 29.9 7.07822 29.9C4.92431 29.9 3.17822 31.6461 3.17822 33.8C3.17822 35.9539 4.92431 37.7 7.07822 37.7Z" fill="#B88F77" stroke="#4D4D4D" stroke-width="2" stroke-miterlimit="10" stroke-linejoin="round"/>
<path d="M39.2784 37.7C41.4324 37.7 43.1785 35.9539 43.1785 33.8C43.1785 31.6461 41.4324 29.9 39.2784 29.9C37.1245 29.9 35.3784 31.6461 35.3784 33.8C35.3784 35.9539 37.1245 37.7 39.2784 37.7Z" fill="#B88F77" stroke="#4D4D4D" stroke-width="2" stroke-miterlimit="10" stroke-linejoin="round"/>
<path d="M6.87842 33.4C6.97842 42.7 13.8784 52.3 22.7784 52.5C31.9784 52.8 39.4784 44.3 39.4784 33.8C39.4784 33.8 38.9784 25 38.3784 23.3C35.8784 24.3 34.5784 24.8 32.8784 24.9L32.5784 22.3C29.5784 22.8 24.7784 23 22.1784 22.3L21.9784 24.7C18.6784 24.5 10.4784 24 8.27842 23.5C7.77842 25 6.87842 30.3 6.87842 33.4Z" fill="#B88F77" stroke="#4D4D4D" stroke-width="2" stroke-miterlimit="10" stroke-linejoin="round"/>
<path d="M16.2783 34.1C17.1067 34.1 17.7783 33.4284 17.7783 32.6C17.7783 31.7715 17.1067 31.1 16.2783 31.1C15.4499 31.1 14.7783 31.7715 14.7783 32.6C14.7783 33.4284 15.4499 34.1 16.2783 34.1Z" fill="#4D4D4D"/>
<path d="M30.0783 34.1C30.9067 34.1 31.5783 33.4284 31.5783 32.6C31.5783 31.7715 30.9067 31.1 30.0783 31.1C29.2498 31.1 28.5782 31.7715 28.5782 32.6C28.5782 33.4284 29.2498 34.1 30.0783 34.1Z" fill="#4D4D4D"/>
<path d="M24.9783 45.2C24.1783 46.5 22.0783 46.3 21.2783 45.2" stroke="#4D4D4D" stroke-width="2" stroke-miterlimit="10" stroke-linecap="round" stroke-linejoin="round"/>
<path d="M43.4784 67.3C43.4784 62.9 39.8784 59.3 35.4784 59.3H27.5784V56C27.5784 56.8 18.4784 56.8 18.4784 56V59.3H10.8784C6.47842 59.3 2.87842 62.9 2.87842 67.3V68.6C8.17842 73.5 15.2784 76.4 23.0784 76.4C30.9784 76.4 38.0784 73.4 43.4784 68.4V67.3Z" fill="#82D5BF" stroke="#4D4D4D" stroke-width="2" stroke-miterlimit="10" stroke-linejoin="round"/>
<path d="M9.27832 68.3V72.7" stroke="#4D4D4D" stroke-width="2" stroke-miterlimit="10" stroke-linecap="round" stroke-linejoin="round"/>
<path d="M37.1782 68.3V72.7" stroke="#4D4D4D" stroke-width="2" stroke-miterlimit="10" stroke-linecap="round" stroke-linejoin="round"/>
<path d="M10.3781 16.3C9.37812 18.5 8.67812 20.9 8.07812 23.9L10.3781 16.3Z" fill="#FCC5AF"/>
<path d="M10.3781 16.3C9.37812 18.5 8.67812 20.9 8.07812 23.9" stroke="#4D4D4D" stroke-width="2" stroke-miterlimit="10" stroke-linecap="round" stroke-linejoin="round"/>
<path d="M14.1785 19.1C13.8785 20.5 13.5785 22.1 13.4785 23.8L14.1785 19.1Z" fill="#FCC5AF"/>
<path d="M14.1785 19.1C13.8785 20.5 13.5785 22.1 13.4785 23.8" stroke="#4D4D4D" stroke-width="1.8189" stroke-miterlimit="10" stroke-linecap="round" stroke-linejoin="round"/>
<path d="M22.5781 18.1C22.1781 19.9 22.0781 22.4 22.0781 24.5L22.5781 18.1Z" fill="#FCC5AF"/>
<path d="M22.5781 18.1C22.1781 19.9 22.0781 22.4 22.0781 24.5" stroke="#4D4D4D" stroke-width="1.8189" stroke-miterlimit="10" stroke-linecap="round" stroke-linejoin="round"/>
<path d="M31.6782 17.9C32.2782 20.1 32.5782 21.7 32.6782 24.1L31.6782 17.9Z" fill="#FCC5AF"/>
<path d="M31.6782 17.9C32.2782 20.1 32.5782 21.7 32.6782 24.1" stroke="#4D4D4D" stroke-width="1.8189" stroke-miterlimit="10" stroke-linecap="round" stroke-linejoin="round"/>
<path d="M35.9785 15.3C36.7785 16.8 38.2785 21.4 38.4785 24.1L35.9785 15.3Z" fill="#FCC5AF"/>
<path d="M35.9785 15.3C36.7785 16.8 38.2785 21.4 38.4785 24.1" stroke="#4D4D4D" stroke-width="2" stroke-miterlimit="10" stroke-linecap="round" stroke-linejoin="round"/>
<path d="M21.6782 35.9V37.6C21.6782 38.3 22.2782 38.9 22.9782 38.9H23.9782" stroke="#4D4D4D" stroke-width="2" stroke-miterlimit="10" stroke-linecap="round" stroke-linejoin="round"/>
<path d="M5.17831 39.6C6.22765 39.6 7.07831 38.7493 7.07831 37.7C7.07831 36.6506 6.22765 35.8 5.17831 35.8C4.12898 35.8 3.27832 36.6506 3.27832 37.7C3.27832 38.7493 4.12898 39.6 5.17831 39.6Z" fill="#82D5BF" stroke="#4D4D4D" stroke-width="2" stroke-miterlimit="10" stroke-linejoin="round"/>
<path d="M41.1783 39.6C42.2277 39.6 43.0783 38.7493 43.0783 37.7C43.0783 36.6506 42.2277 35.8 41.1783 35.8C40.129 35.8 39.2783 36.6506 39.2783 37.7C39.2783 38.7493 40.129 39.6 41.1783 39.6Z" fill="#82D5BF" stroke="#4D4D4D" stroke-width="2" stroke-miterlimit="10" stroke-linejoin="round"/>
</svg>
